X: 1
T:Train on the Island (Old-Time Version)
M:4/4
N: Q:1/2=90
L:1/4
R:march
K:G
| "G"Bdd3/2e/ | d2 G2 | "C"eed/B3/2 | "G"d4 |
| "G"B3/2c/BA | "C"GE-"Am"E2 | "G"DGB3/2c/ | "D"A4 || 
P:chorus
| "G"B3/2c/BA | "C"GE3 | "G"DG"D"B3/2A/ | "G"G4- | G4 |]
